lib/brands/icons/google-maps.svg

<svg xmlns="http://www.w3.org/2000/svg" fill="none" aria-hidden="true" viewBox="0 0 48 48"><g id="google-maps-Icon" filter="url(#filter0_d_94_18090)"><g id="maps"><path id="Subtract" fill="#34A851" fill-rule="evenodd" d="M38.545 18.2029L38.5448 18.2802C38.5446 18.3127 38.5443 18.3453 38.5439 18.3778C38.5447 18.4158 38.545 18.4541 38.545 18.4928C38.545 24.5587 33.8191 29.9281 30.6566 33.5212C29.739 34.5638 28.953 35.4568 28.4522 36.1739C26.6712 38.7247 25.7312 41.488 25.4838 42.5507C25.4838 43.3512 24.8193 44 23.9996 44C23.1798 44 22.5153 43.3512 22.5153 42.5507C22.2679 41.488 21.3279 38.7247 19.5469 36.1739C19.0462 35.4568 18.2602 34.5638 17.3425 33.5212C14.18 29.9281 9.4541 24.5587 9.4541 18.4928C9.4541 18.4541 9.45446 18.4158 9.45519 18.3778C9.45446 18.3196 9.4541 18.2613 9.4541 18.2029C9.4541 10.3588 15.9663 4 23.9996 4C32.0328 4 38.545 10.3588 38.545 18.2029ZM23.9996 23.4203C27.1145 23.4203 29.6396 20.9546 29.6396 17.913C29.6396 14.8715 27.1145 12.4058 23.9996 12.4058C20.8846 12.4058 18.3595 14.8715 18.3595 17.913C18.3595 20.9546 20.8846 23.4203 23.9996 23.4203Z" clip-rule="evenodd"/><path id="Intersect" fill="#4285F5" d="M36.9181 11.6701C35.1371 8.31902 32.0286 5.74868 28.2727 4.62322L19.9189 14.1117C20.946 13.0609 22.3945 12.4063 23.9995 12.4063C27.1145 12.4063 29.6396 14.872 29.6396 17.9135C29.6396 19.1543 29.2194 20.2993 28.5103 21.2201L36.9181 11.6701Z"/><path id="Intersect_2" fill="#F9BB0E" d="M17.5107 33.7131C17.455 33.6498 17.3987 33.5859 17.342 33.5215C15.2574 31.153 12.4935 28.0128 10.8516 24.41L19.534 14.5482C18.7973 15.4788 18.359 16.646 18.359 17.9133C18.359 20.9549 20.8841 23.4206 23.999 23.4206C25.5769 23.4206 27.0035 22.7878 28.0271 21.7681L17.5107 33.7131Z"/><path id="Subtract_2" fill="#E74335" d="M12.8957 9.0285C10.7488 11.5034 9.4541 14.7056 9.4541 18.2032C9.4541 18.2615 9.45446 18.3198 9.45519 18.3781C9.45446 18.4161 9.4541 18.4544 9.4541 18.493C9.4541 20.5605 10.0031 22.5471 10.8521 24.41L19.5199 14.5648L12.8957 9.0285Z"/><path id="Subtract_3" fill="#1A73E6" d="M28.2725 4.62281C26.9213 4.21796 25.4864 4 23.9993 4C19.5479 4 15.5636 5.95249 12.8955 9.02824L19.5197 14.5645L19.5341 14.5481C19.6546 14.3959 19.783 14.25 19.9189 14.111L28.2725 4.62281Z"/></g></g><defs><filter id="filter0_d_94_18090" width="52" height="52" x="-2" y="-1" color-interpolation-filters="sRGB" filterUnits="userSpaceOnUse"><feFlood flood-opacity="0" result="BackgroundImageFix"/><feColorMatrix in="SourceAlpha" result="hardAlpha" values="0 0 0 0 0 0 0 0 0 0 0 0 0 0 0 0 0 0 127 0"/><feOffset dy="1"/><feGaussianBlur stdDeviation="1"/><feColorMatrix values="0 0 0 0 0.0627451 0 0 0 0 0.0941176 0 0 0 0 0.156863 0 0 0 0.05 0"/><feBlend in2="BackgroundImageFix" result="effect1_dropShadow_94_18090"/><feBlend in="SourceGraphic" in2="effect1_dropShadow_94_18090" result="shape"/></filter></defs></svg>

<svg xmlns="http://www.w3.org/2000/svg" fill="none" aria-hidden="true" viewBox="0 0 48 48"><g filter="url(#a)"><path fill="#34A851" fill-rule="evenodd" d="M38.545 18.203v.077l-.001.098.001.115c0 6.066-4.726 11.435-7.888 15.028-.918 1.043-1.704 1.936-2.205 2.653-1.78 2.55-2.72 5.314-2.968 6.377 0 .8-.665 1.449-1.484 1.449-.82 0-1.485-.649-1.485-1.45-.247-1.062-1.187-3.825-2.968-6.376-.5-.717-1.287-1.61-2.204-2.653-3.163-3.593-7.889-8.962-7.889-15.028l.001-.115v-.175C9.454 10.359 15.965 4 24 4c8.033 0 14.545 6.359 14.545 14.203ZM24 23.42c3.114 0 5.64-2.465 5.64-5.507s-2.526-5.507-5.64-5.507c-3.115 0-5.64 2.465-5.64 5.507S20.884 23.42 24 23.42Z" clip-rule="evenodd"/><path fill="#4285F5" d="M36.918 11.67c-1.78-3.351-4.89-5.921-8.645-7.047l-8.354 9.489a5.69 5.69 0 0 1 4.08-1.706c3.116 0 5.64 2.466 5.64 5.507a5.4 5.4 0 0 1-1.129 3.307l8.408-9.55Z"/><path fill="#F9BB0E" d="m17.51 33.713-.168-.191c-2.085-2.369-4.848-5.51-6.49-9.112l8.682-9.862a5.4 5.4 0 0 0-1.175 3.365c0 3.042 2.525 5.508 5.64 5.508a5.69 5.69 0 0 0 4.028-1.653L17.511 33.713Z"/><path fill="#E74335" d="M12.896 9.028c-2.147 2.475-3.442 5.678-3.442 9.175l.001.175v.115c0 2.068.548 4.054 1.397 5.917l8.668-9.845-6.624-5.537Z"/><path fill="#1A73E6" d="M28.273 4.623A14.869 14.869 0 0 0 23.998 4c-4.451 0-8.435 1.952-11.103 5.028l6.624 5.537.014-.017c.12-.152.249-.298.385-.437l8.354-9.488Z"/></g><defs><filter id="a" width="52" height="52" x="-2" y="-1" color-interpolation-filters="sRGB" filterUnits="userSpaceOnUse"><feFlood flood-opacity="0" result="BackgroundImageFix"/><feColorMatrix in="SourceAlpha" result="hardAlpha" values="0 0 0 0 0 0 0 0 0 0 0 0 0 0 0 0 0 0 127 0"/><feOffset dy="1"/><feGaussianBlur stdDeviation="1"/><feColorMatrix values="0 0 0 0 0.0627451 0 0 0 0 0.0941176 0 0 0 0 0.156863 0 0 0 0.05 0"/><feBlend in2="BackgroundImageFix" result="effect1_dropShadow_94_18090"/><feBlend in="SourceGraphic" in2="effect1_dropShadow_94_18090" result="shape"/></filter></defs></svg>
